!!!COM: Palestrina, Giovanni Perluigi da
!!!OPR: Missa Pater noster
!!!OMD: Sanctus
!!!OTL: Pleni
**kern	**kern	**kern
*Itenor	*Icalto	*Icant
!Tenor	!Altus	!Cantus
*clefGv2	*clefG2	*clefG2
*k[]	*k[]	*k[]
*D:dor	*D:dor	*D:dor
*M4/2	*M4/2	*M4/2
=33	=33	=33
1d	1r	0r
2d	1a	.
2d	.	.
=34	=34	=34
1f	2a	0r
.	2a	.
2e	1cc	.
4c	.	.
4d	.	.
=35	=35	=35
4e	1b	1r
4f	.	.
2.g	.	.
.	1a	2r
8f#	.	.
8e	.	.
2f#	.	2dd
=36	=36	=36
1g	1b	2dd
.	.	2dd
2d	1a	1ff
2f	.	.
=37	=37	=37
4c	2g	1ee
4d	.	.
4e	1cc	.
4f	.	.
1g	.	1dd
.	2b	.
=38	=38	=38
1c	4a	1ee
.	4g	.
.	1cc	.
1r	.	1dd
.	2b	.
=39	=39	=39
0r	2a	2cc
.	4g	1ff
.	4f	.
.	1g	.
.	.	2ee
=40	=40	=40
2r	2.f	4dd
.	.	4cc
2d	.	2.ff
.	4g	.
2d	2a	.
.	.	4ee
2d	[2b-	[2dd
=41	=41	=41
1f	2b-]	2dd]
.	2.a	4cc
.	.	4b
1e	.	4cc
.	4g	4b
.	[2g	4b
.	.	8a
.	.	8g
=42	=42	=42
1d	4g]	2a
.	8f#	.
.	8e	.
.	2f#	1dd
1e	2g	.
.	2g	2cc
=43	=43	=43
1d	2a	1ff
.	2b	.
1c	2.cc	[1ee
.	4b	.
=44	=44	=44
2r	2a	1ee]
2c	2g	.
2d	2f	1r
2e	2e	.
=45	=45	=45
2.f	4d	0r
.	4e	.
.	4f	.
4e	4g	.
2d	2.a	.
2c	.	.
.	8g	.
.	8f	.
=46	=46	=46
2B-	2g	2r
2A	2a	2cc
1G	2b-	2dd
.	2g	2ee
=47	=47	=47
0F	1a	2.ff
.	.	4ee
.	2r	2dd
.	2f	2cc
=48	=48	=48
2r	2g	2b-
2F	2a	2a
2G	2b-	2g
2A	2a	4f
.	.	4e
=49	=49	=49
1B-	4g	2d
.	4f	.
.	4f	1dd
.	8e	.
.	8d	.
1A	1e	.
.	.	2cc
=50	=50	=50
1r	2d	2.ff
.	2f	.
.	.	4ee
2r	2g	2dd
2c	[2a	2cc
=51	=51	=51
2d	2a]	1b
2e	2g#	.
2.f	[1a	2a
.	.	2cc
4e	.	.
=52	=52	=52
2d	0a]	2dd
2c	.	2ee
2.d	.	2.ff
4c	.	4ee
=53	=53	=53
2B-	2r	2dd
2A	2f	2cc
2G	2g	2b-
2F#	2a	2a
=54	=54	=54
0G	2.b-	2.g
.	4a	4a
.	1g	1b-
=55	=55	=55
0d	0f#	0a
*-	*-	*-
!!!CDT: 1525/^1526/-1594/2/2
!!!OCY: Italia
!!!AGN: Mass (Paraphrase)
!!!AST: renaissance, vocal
!!!ASW: Prayer
!!!PWK: Masses, Book 10
!!!RNB: Cadence finals: A
!!!YOR: Le Opere Complete, v. 27, p. 199
!!!YOO: Rome, Italy: Fratelli Scalera
!!!END: 1992//
!!!EED: John Miller
!!!YEC: Copyright 2000, John Miller
!!!YEN: United States of America
!!!YEM: Rights to all derivative electronic formats reserved.
!!!YEM: Refer to licensing agreement for further details.
!!!YEM: This file must be accompanied by the licensing agreement.
!!!YEM: A copy of the licensing agreement may be found at http://www.music-cog.ohio-state.edu/HumdrumDatabases/Palestrina/license.txt
!!!EMD: converted to Humdrum by Bret Aarden
